assets/icons/copy-2.svg

<svg width="20" height="20" viewBox="0 0 20 20" fill="none" xmlns="http://www.w3.org/2000/svg">
<path d="M16.4 6.80002H8.39999C7.51633 6.80002 6.79999 7.51636 6.79999 8.40002V16.4C6.79999 17.2837 7.51633 18 8.39999 18H16.4C17.2836 18 18 17.2837 18 16.4V8.40002C18 7.51636 17.2836 6.80002 16.4 6.80002Z" stroke="currentColor" stroke-width="1.4" stroke-linecap="round" stroke-linejoin="round"/>
<path d="M3.6 13.2C2.72 13.2 2 12.48 2 11.6V3.60002C2 2.72002 2.72 2.00002 3.6 2.00002H11.6C12.48 2.00002 13.2 2.72002 13.2 3.60002" stroke="currentColor" stroke-width="1.4" stroke-linecap="round" stroke-linejoin="round"/>
</svg>

<svg xmlns="http://www.w3.org/2000/svg" width="20" height="20" fill="none" viewBox="0 0 20 20"><path stroke="currentColor" stroke-linecap="round" stroke-linejoin="round" stroke-width="1.4" d="M16.4 6.8h-8a1.6 1.6 0 0 0-1.6 1.6v8A1.6 1.6 0 0 0 8.4 18h8a1.6 1.6 0 0 0 1.6-1.6v-8a1.6 1.6 0 0 0-1.6-1.6"/><path stroke="currentColor" stroke-linecap="round" stroke-linejoin="round" stroke-width="1.4" d="M3.6 13.2c-.88 0-1.6-.72-1.6-1.6v-8C2 2.72 2.72 2 3.6 2h8c.88 0 1.6.72 1.6 1.6"/></svg>
